X:1
T:The Home of the Blest
T:The Home of the Blest
T:Rigdon McCoy McIntosh, 1883
T:Alfred Arthur Graley, 1862
T:Public Domain Courtesy of the Cyber Hymnal™
T:Public Domain Courtesy of the Cyber Hymnal™
C:Rigdon McCoy McIntosh, 1883
Z:Public Domain
Z:Courtesy of the Cyber Hymnal™
%%score ( 1 2 ) ( 3 4 )
L:1/8
Q:1/4=117
M:3/4
K:B
V:1 treble 
V:2 treble 
V:3 bass 
V:4 bass 
V:1
 [DF]2 | [EG]2 [DF]2 [^^C^E]2 | [DF]4 [DF][DF] | [EG]2 [DF]2 [^^C^E]2 | [DF]4 [DB]2 | %5
w: 1.~Oh,|when shall I|dwell in a|man- sion all|bright, And|
w: 2.~No|pearl from the|o- cean or|gold from the|mine Can|
w: 3.~But|while I’m a|stran- ger, a-|way from my|home, I’ll|
 [Fc]2 [FB]2 [FA]2 | [FB]2 [FA]2 [^EG]2 | F4 [DB]2 | [DA]2 [DB]2 [Dc]2 | [DB]4 [DB][DB] | %10
w: Je- sus, my|Sav- ior, be-|hold? Or|walk by His|side, like an|
w: par- don or|pur- i- ty|buy: I’ll|trust in the|blood of a|
w: toil in the|vine- yard and|pray; I’ll|car- ry the|cross, while I|
 [DA]2 [DB]2 [Dc]2 | [DB]4 ([Fc][Fc]) | [Fd]2 [Fc]2 [FB]2 | [Ec]2 [DB]2 [CA]2 | [DB]4 z2 || %15
w: an- gel of|light, In~a *|ci- ty all|gar- nished with|gold?|
w: Sav- ior di-|vine, And *|cling to the|cross till I|die.|
w: think of the|crown, And *|watch for the|break of the|day.|
"^Refrain" [Fc]2 [FB]2 [Fc]2 | [Fd]4 z2 | [Ge]2 [GB]2 [Ge]2 | [Fd]4 z2 | [DF]2 [FB]2 [Fd]2 | %20
w: |||||
w: Home of the|blest,|home of the|blest!|When wilt thou|
w: |||||
 [Fd]2 [Fc]2 [^EB]2 | [Fc]4 z2 | [Fc]2 [FB]2 [Fc]2 | [Fd]4 z2 | [Ge]2 [GB]2 [Ge]2 | [Fd]4 z2 | %26
w: ||||||
w: ev- er be|mine?|Home of the|blest,|home of the|blest!|
w: ||||||
 [DF]2 [FB]2 [Fd]2 | [Ec]2 [DB]2 [CA]2 | [DB]4 |] %29
w: |||
w: Soon shalt thou|ev- er be|mine.|
w: |||
V:2
 x2 | x6 | x6 | x6 | x6 | x6 | x6 | F4 x2 | x6 | x6 | x6 | x6 | x6 | x6 | x6 || x6 | x6 | x6 | x6 | %19
 x6 | x6 | x6 | x6 | x6 | x6 | x6 | x6 | x6 | x4 |] %29
V:3
 [B,,B,]2 | [B,,B,]2 [B,,B,]2 [B,,B,]2 | [B,,B,]4 [B,,B,][B,,B,] | [B,,B,]2 [B,,B,]2 [B,,B,]2 | %4
 [B,,B,]4 [B,,F,]2 | A,2 [D,B,]2 [F,C]2 | [B,,D]2 [C,C]2 [C,B,]2 | [F,A,]4 G,2 | %8
 [D,^^F,]2 [D,G,]2 [D,A,]2 | G,4 G,G, | [D,^^F,]2 [D,G,]2 [D,A,]2 | G,4 ([F,A,][F,A,]) | %12
 B,2 [F,A,]2 (B,G,) | [E,G,]2 F,2 F,2 | [B,,F,]4 z2 || [F,A,]2 [D,B,]2 [F,A,]2 | B,4 z2 | %17
 [E,B,]2 [E,B,]2 [E,B,]2 | [B,,B,]4 z2 | [B,,B,]2 [B,,D]2 [B,,B,]2 | B,2 [A,C]2 [G,C]2 | %21
 [F,A,]4 z2 | [F,A,]2 [D,B,]2 [F,A,]2 | B,4 z2 | [E,B,]2 [E,B,]2 [E,B,]2 | [B,,B,]4 z2 | %26
 [B,,B,]2 [B,,D]2 [B,,B,]2 | [E,G,]2 F,2 F,2 | [B,,F,]4 |] %29
V:4
 x2 | x6 | x6 | x6 | x6 | (F,E,) x4 | x6 | x4 G,2 | x6 | G,4 G,G, | x6 | G,4 x2 | B,2 G,2 x2 | %13
 x2 F,2 F,2 | x6 || x6 | B,4 x2 | x6 | x6 | x6 | B,2 x4 | x6 | x6 | B,4 x2 | x6 | x6 | x6 | %27
 x2 F,2 F,2 | x4 |] %29

